X: 112
T: Non suit him ** INCOMPLETE **
B: 204 Favourite Country Dances
N: Published by Straight & Skillern, London ca.1775
F: http://imslp.org/wiki/204_Favourite_Country_Dances_(Various) p.56 #112
Z: 2014 John Chambers <jc:trillian.mit.edu>
N: Bars 4, 7, 8 are only partly visible; rests used for invisible notes; '?' marks dubious notes.
M: 2/4
L: 1/8
K: G
% - - - - - - - - - - - - - - - - - - - - - - - - -
|:\
GGBG | AAcA | Bdc"?"A | B"?"z"?"zA |\
GGBG | AAcA | B"?"GAF | G"?"z"?"z"?"z :|
[|\
GB dB | FA df | ed^cd | e=cGF |\
E^ceG | FA dg | fde^c | d3 D"D.C."y |]
% - - - - - - - - - - - - - - - - - - - - - - - - -
%%begintext align
%% Cast off 2 Cu. lead up and cast off Hands
%% 4 round Right and Left at top
%%endtext

%%sep 1 1 500
%%sep 1 1 500
